src/img/icons/mail.svg

<!-- Generated by IcoMoon.io -->
<svg version="1.1" xmlns="http://www.w3.org/2000/svg" width="1024" height="1024" viewBox="0 0 1024 1024">
<title></title>
<g id="icomoon-ignore">
</g>
<path fill="#000" d="M0 112h1024v800h-1024v-800zM117.784 176l394.216 341.655 394.218-341.655h-788.434zM960 214.079l-315.357 273.31 315.357 315.357v-588.667zM914.745 848l-318.589-318.589-84.157 72.934-84.157-72.934-318.588 318.589h805.491zM64 802.745l315.357-315.357-315.357-273.31v588.667z"></path>
</svg>

<svg xmlns="http://www.w3.org/2000/svg" viewBox="0 0 1024 1024"><path d="M0 112h1024v800H0V112zm117.784 64L512 517.655 906.218 176H117.784zM960 214.079l-315.357 273.31L960 802.746V214.079zM914.745 848L596.156 529.411l-84.157 72.934-84.157-72.934L109.254 848h805.491zM64 802.745l315.357-315.357L64 214.078v588.667z"/></svg>
